X: 6
T: Toss The Feathers
R: reel
M: 4/4
L: 1/8
K: Edor
|:"Em"EBB2 dBB2|"Em"EBBA "D"FDFA|"Em"BE E2 BABd|[1"C"egfe "D"dBAF:|2"C"egfe "D"dBAe|
"Em"Beed e2 de|"D"fede "Bm"fe e2|"Em"febe febe|"D"fede "Bm"feed|
"Em"Beed e2 de|"D"fede fa a2|"G"b2bf "D"a2af|"C"egfe "Bm"dBAF|


Tune 113	Setting 113

